symbolic/22x22/apps/com.github.cjfloss.envelope.svg

<svg xmlns="http://www.w3.org/2000/svg" width="22" height="22" version="1.1">
 <path style="opacity:0.2" d="M 10,4 V 5.5283205 C 9.099167,5.582697 8.2940305,5.734772 7.5839845,6.1220705 6.6206275,6.6475375 6,7.75 6,9 c 0,1.333334 0.860415,2.369658 1.833008,2.81543 0.9725925,0.445772 2.042969,0.551758 3.042969,0.676758 1,0.125 1.929624,0.269014 2.457031,0.510742 C 13.860415,13.244658 14,13.333334 14,14 14,14.468166 13.863766,14.707299 13.408203,14.991211 12.952641,15.275123 12.126311,15.5 11,15.5 9.25,15.5 8.6613545,14.939297 8.332031,14.445313 8.002708,13.951328 8,13.5 8,13.5 H 6 c 0,0 -0.0027,1.048672 0.667969,2.054687 C 7.232305,16.401192 8.328458,17.193604 10,17.425781 V 19 h 2 v -1.546875 c 0.949386,-0.0945 1.779145,-0.336095 2.466797,-0.764649 C 15.386234,16.115472 16,15.104164 16,14 16,12.666667 15.139585,11.630342 14.166992,11.184571 13.1944,10.738799 12.124024,10.632813 11.124024,10.507813 c -1,-0.125 -1.929625,-0.269014 -2.457032,-0.510742 C 8.139585,9.755342 8,9.666667 8,9 8,8.25 8.1293725,8.1024625 8.5410155,7.8779295 8.952659,7.653397 9.816667,7.5 11,7.5 c 1.791667,0 2.421903,0.503941 2.71875,0.875 C 14.015597,8.746059 14,9 14,9 h 2 C 16,9 15.984405,8.003941 15.28125,7.125 14.691998,6.3884355 13.626729,5.751567 12,5.5625 V 4 Z"/>
 <path style="fill:#4f8d28" d="M 11,1 A 10,10 0 0 0 1,11 10,10 0 0 0 11,21 10,10 0 0 0 21,11 10,10 0 0 0 11,1 Z"/>
 <path style="opacity:0.2" d="M 10,4 V 5.5283205 C 9.099167,5.582697 8.2940305,5.734772 7.5839845,6.1220705 6.6206275,6.6475375 6,7.75 6,9 c 0,1.333334 0.860415,2.369658 1.833008,2.81543 0.9725925,0.445772 2.042969,0.551758 3.042969,0.676758 1,0.125 1.929624,0.269014 2.457031,0.510742 C 13.860415,13.244658 14,13.333334 14,14 14,14.468166 13.863766,14.707299 13.408203,14.991211 12.952641,15.275123 12.126311,15.5 11,15.5 9.25,15.5 8.6613545,14.939297 8.332031,14.445313 8.002708,13.951328 8,13.5 8,13.5 H 6 c 0,0 -0.0027,1.048672 0.667969,2.054687 C 7.232305,16.401192 8.328458,17.193604 10,17.425781 V 18.5 h 2 v -1.046875 c 0.949386,-0.0945 1.779145,-0.336095 2.466797,-0.764649 C 15.386234,16.115472 16,15.104164 16,14 16,12.666667 15.139585,11.630342 14.166992,11.184571 13.1944,10.738799 12.124024,10.632813 11.124024,10.507813 c -1,-0.125 -1.929625,-0.269014 -2.457032,-0.510742 C 8.139585,9.755342 8,9.666667 8,9 8,8.25 8.1293725,8.1024625 8.5410155,7.8779295 8.952659,7.653397 9.816667,7.5 11,7.5 c 1.75,0 2.338646,0.560703 2.667969,1.0546875 C 13.997292,9.048672 14,9.5 14,9.5 h 2 C 16,9.5 16.0027,8.451328 15.332031,7.4453125 14.767695,6.5988075 13.671542,5.8063955 12,5.574219 V 4 Z"/>
 <path style="opacity:0.2" d="M 1.01075,11.209 A 10,10 0 0 0 1,11.5 10,10 0 0 0 11,21.5 10,10 0 0 0 21,11.5 10,10 0 0 0 20.9895,11.291 10,10 0 0 1 11,21 10,10 0 0 1 1.011,11.209 Z"/>
 <path style="opacity:0.1;fill:#ffffff" d="m 11,1 a 10,10 0 0 0 -10,10 10,10 0 0 0 0.01075,0.209 10,10 0 0 1 9.989,-9.709 10,10 0 0 1 9.9895,9.791 10,10 0 0 0 0.0105,-0.291 10,10 0 0 0 -10,-10 z"/>
 <path style="fill:none;stroke:#ffffff;stroke-width:2;stroke-linejoin:round" d="M 15,9 C 15,9 15,6 11,6 8.5,6 7,6.5 7,8.5 c 0,4 8,1 8,5 0,1.57233 -1.5,2.5 -4,2.5 -4,0 -4,-3 -4,-3 v 0"/>
 <rect style="fill:#ffffff" width="2" height="2.5" x="10" y="4"/>
 <rect style="fill:#ffffff" width="2" height="2.5" x="10" y="15.5"/>
</svg>

<svg xmlns="http://www.w3.org/2000/svg" width="22" height="22"><path style="opacity:.2" d="M10 4v1.528c-.9.055-1.706.207-2.416.594C6.621 6.648 6 7.75 6 9c0 1.333.86 2.37 1.833 2.815.973.446 2.043.552 3.043.677s1.93.27 2.457.51c.527.243.667.331.667.998 0 .468-.136.707-.592.991-.455.284-1.282.509-2.408.509-1.75 0-2.339-.56-2.668-1.055C8.002 13.951 8 13.5 8 13.5H6s-.003 1.049.668 2.055c.564.846 1.66 1.639 3.332 1.87V19h2v-1.547c.95-.094 1.78-.336 2.467-.765C15.387 16.115 16 15.104 16 14c0-1.333-.86-2.37-1.833-2.815-.973-.446-2.043-.552-3.043-.677s-1.93-.27-2.457-.51C8.14 9.754 8 9.666 8 9c0-.75.13-.898.541-1.122C8.953 7.653 9.817 7.5 11 7.5c1.792 0 2.422.504 2.719.875C14.016 8.746 14 9 14 9h2s-.016-.996-.719-1.875c-.589-.737-1.654-1.373-3.281-1.563V4z"/><path style="fill:#4f8d28" d="M11 1A10 10 0 0 0 1 11a10 10 0 0 0 10 10 10 10 0 0 0 10-10A10 10 0 0 0 11 1z"/><path style="opacity:.2" d="M10 4v1.528c-.9.055-1.706.207-2.416.594C6.621 6.648 6 7.75 6 9c0 1.333.86 2.37 1.833 2.815.973.446 2.043.552 3.043.677s1.93.27 2.457.51c.527.243.667.331.667.998 0 .468-.136.707-.592.991-.455.284-1.282.509-2.408.509-1.75 0-2.339-.56-2.668-1.055C8.002 13.951 8 13.5 8 13.5H6s-.003 1.049.668 2.055c.564.846 1.66 1.639 3.332 1.87V18.5h2v-1.047c.95-.094 1.78-.336 2.467-.765C15.387 16.115 16 15.104 16 14c0-1.333-.86-2.37-1.833-2.815-.973-.446-2.043-.552-3.043-.677s-1.93-.27-2.457-.51C8.14 9.754 8 9.666 8 9c0-.75.13-.898.541-1.122C8.953 7.653 9.817 7.5 11 7.5c1.75 0 2.339.56 2.668 1.055.33.494.332.945.332.945h2s.003-1.049-.668-2.055c-.564-.846-1.66-1.639-3.332-1.87V4z"/><path style="opacity:.2" d="M1.01 11.209A10 10 0 0 0 1 11.5a10 10 0 0 0 10 10 10 10 0 0 0 10-10 10 10 0 0 0-.01-.209A10 10 0 0 1 11 21a10 10 0 0 1-9.989-9.791z"/><path style="opacity:.1;fill:#fff" d="M11 1A10 10 0 0 0 1 11a10 10 0 0 0 .01.209A10 10 0 0 1 11 1.5a10 10 0 0 1 9.99 9.791A10 10 0 0 0 21 11 10 10 0 0 0 11 1z"/><path style="fill:none;stroke:#fff;stroke-width:2;stroke-linejoin:round" d="M15 9s0-3-4-3c-2.5 0-4 .5-4 2.5 0 4 8 1 8 5 0 1.572-1.5 2.5-4 2.5-4 0-4-3-4-3"/><path style="fill:#fff" d="M10 4h2v2.5h-2zM10 15.5h2V18h-2z"/></svg>
